openmetadata-ui/src/main/resources/ui/src/assets/svg/ic-trends.svg

<svg width="16" height="16" viewBox="0 0 16 16" fill="none" xmlns="http://www.w3.org/2000/svg">
<g clip-path="url(#clip0)">
<path d="M11.4345 4.15492C11.3257 3.97487 11.1101 3.88929 10.9075 3.94581C10.7047 4.00233 10.5646 4.1869 10.5646 4.39735C10.5646 4.9695 10.0991 5.43483 9.52711 5.43483C8.95497 5.43483 8.48963 4.9695 8.48963 4.39735V0.468757C8.48963 0.279182 8.37537 0.108283 8.2002 0.035651C8.02503 -0.0368589 7.82337 0.00330231 7.68934 0.137336C7.63685 0.189948 6.38672 1.44715 5.12037 3.34681C4.37366 4.46693 3.77771 5.57802 3.34924 6.64919C2.80652 8.00612 2.53125 9.30532 2.53125 10.5104C2.53125 13.5374 4.9939 16 8.02076 16C11.0477 16 13.5104 13.5374 13.5104 10.5104C13.5104 8.5729 12.8119 6.43459 11.4345 4.15492ZM8.02076 15.0625C5.51087 15.0625 3.46875 13.0204 3.46875 10.5104C3.46875 8.03969 4.78553 5.54225 5.89026 3.88209C6.48902 2.98231 7.09241 2.22401 7.55201 1.6847V4.39735C7.55201 5.48634 8.438 6.37233 9.52699 6.37233C10.1928 6.37233 10.7827 6.04127 11.1406 5.53505C12.0916 7.3257 12.5729 8.99587 12.5729 10.5104C12.5729 13.0204 10.5309 15.0625 8.02076 15.0625Z" fill="#76746F"/>
<path d="M10.6798 7.9115H8.67153C8.41262 7.9115 8.20278 8.12134 8.20278 8.38013C8.20266 8.63904 8.41262 8.849 8.67141 8.849H9.54824L7.54555 10.8516L6.45693 9.76294C6.27394 9.57996 5.97707 9.57996 5.79408 9.76294L4.7289 10.828C4.54579 11.0111 4.54579 11.3079 4.72878 11.491C4.91188 11.6741 5.20863 11.674 5.39174 11.491L6.12551 10.7573L7.21401 11.846C7.3019 11.9338 7.42116 11.9833 7.54555 11.9833C7.66982 11.9833 7.78908 11.9338 7.87697 11.846L10.2111 9.51197V10.3886C10.2111 10.6473 10.4209 10.8573 10.6798 10.8573C10.9387 10.8573 11.1486 10.6473 11.1486 10.3886V8.38025C11.1486 8.12134 10.9387 7.9115 10.6798 7.9115Z" fill="#76746F"/>
</g>
<defs>
<clipPath id="clip0">
<rect width="16" height="16" fill="white"/>
</clipPath>
</defs>
</svg>

<svg xmlns="http://www.w3.org/2000/svg" width="16" height="16" fill="none"><g fill="#76746F" clip-path="url(#a)"><path d="M11.434 4.155a.469.469 0 0 0-.87.242 1.039 1.039 0 0 1-2.074 0V.47a.469.469 0 0 0-.8-.332c-.053.053-1.303 1.31-2.57 3.21-.746 1.12-1.342 2.231-1.77 3.302-.543 1.357-.819 2.656-.819 3.861A5.496 5.496 0 0 0 8.021 16a5.496 5.496 0 0 0 5.49-5.49c0-1.937-.7-4.075-2.076-6.355ZM8.021 15.062a4.557 4.557 0 0 1-4.552-4.552c0-2.47 1.317-4.968 2.421-6.628.599-.9 1.202-1.658 1.662-2.197v2.712a1.974 1.974 0 0 0 3.589 1.138c.95 1.79 1.432 3.46 1.432 4.975a4.557 4.557 0 0 1-4.552 4.553Z"/><path d="M10.68 7.912H8.672a.469.469 0 0 0 0 .937h.876l-2.002 2.003-1.09-1.09a.469.469 0 0 0-.662 0L4.73 10.829a.469.469 0 0 0 .663.663l.734-.734 1.088 1.089a.47.47 0 0 0 .663 0l2.334-2.334v.877a.469.469 0 0 0 .938 0V8.38a.469.469 0 0 0-.47-.469Z"/></g><defs><clipPath id="a"><path fill="#fff" d="M0 0h16v16H0z"/></clipPath></defs></svg>
